components/2.0/icon/icons/icon-comment-outline-22px.svg

<svg width="22" height="22" xmlns="http://www.w3.org/2000/svg"><g fill="#3D4752" fill-rule="evenodd"><path d="M14 7v4h2v3h1l1-3V7h-4zM8 7v4h2v3h1l1-3V7H8z"/><path d="M20 5v12H6V5h14zm2-2H0l4 3v13h18V3z"/></g></svg>

<?xml version="1.0" encoding="UTF-8" standalone="no"?>
<svg width="22px" height="22px" viewBox="0 0 22 22" version="1.1" xmlns="http://www.w3.org/2000/svg" xmlns:xlink="http://www.w3.org/1999/xlink" xmlns:sketch="http://www.bohemiancoding.com/sketch/ns">
    <!-- Generator: Sketch 3.4.4 (17249) - http://www.bohemiancoding.com/sketch -->
    <title>icon-comment-outline-22px</title>
    <desc>Created with Sketch.</desc>
    <defs></defs>
    <g id="22px" stroke="none" stroke-width="1" fill="none" fill-rule="evenodd" sketch:type="MSPage">
        <g id="icon-comment-outline-22px" sketch:type="MSArtboardGroup" fill="#3D4752">
            <path d="M14,7 L14,11 L16,11 L16,14 L17,14 L18,11 L18,7 L14,7 Z" id="Shape" sketch:type="MSShapeGroup"></path>
            <path d="M8,7 L8,11 L10,11 L10,14 L11,14 L12,11 L12,7 L8,7 Z" id="Shape" sketch:type="MSShapeGroup"></path>
            <path d="M20,5 L20,17 L6,17 L6,6 L6,5 L20,5 L20,5 Z M22,3 L0,3 L4,6 L4,19 L22,19 L22,3 L22,3 L22,3 Z" id="Shape" sketch:type="MSShapeGroup"></path>
        </g>
    </g>
</svg>
